X:10881
T:Miss Gordon of Gight
C:Isaac Cooper
G:fiddle reel, early 1780s
M:C|
L:1/8
K:Cmin
G,CEG cgec|BdBG FDB,D|   CEGE DFBG|FDB,D C/C/C C2:|
egbg  agfe|defg fdBf |[1 egbg agfe|dBfd  c/c/c c2:|
                      [2 gfed cdec|BGFD  EC    C2|]
